X:92
T:Razette. EHo.092, La
M:C|
L:1/8
Q:1/4=120
S:Edward Holmes MS, East Riding Archives, Beverley DDX114/21
R:Cotillion
Z:Village Music Project. R.Greig 2016
K:A
e4|dcBA cBAG|A2E2 EFGA|cBcA d2c2|{c}B4B4|
AGFE GFE^D|EFGA Be^dc|B2e2 gfe^d|e4:|
|:EFGA|B2B2"^tr"B2c2|{c}d4 fedc|edcB dcBA|
e2E2abgb|abgb abgb|aecA fdea|dBcAB2A2|
E4 EFGA|B2B2BG"^tr"c2|d4 fedc|edcB dcBA|
e4abgb|abgb abgb|a2e2 (f/>d/) {e/}(3d/c/d/ cB|
(e/>c/) {d/}(3c/B/c/ BA dBAG|A4:|

